X:12
T: Die schoene Magdalena
N: Q0125G
O: Osteuropa, UdSSR, Ukraine, Zaporoze, Viktoriafeld
R: Ballade, verbotene Liebe, Flucht
M: 6/8
L: 1/16
K: G
DD | G4G2G2e2d2 | B2G4z4
d2 | d2c2A2F2d2c2 | B6z4
d2 | B2A2G2F2e2dc | B2d2
cBA2c2BA | G4A2B4
D2 | G2B2e2d2c2F2 | G6z4

@@@ Tune index: 1510
